icons/search-square.svg

<svg width="24" height="24" viewBox="0 0 24 24" fill="none" xmlns="http://www.w3.org/2000/svg">
<path fill-rule="evenodd" clip-rule="evenodd" d="M3.75 9C3.75 6.11421 6.11421 3.75 9 3.75H15C17.8858 3.75 20.25 6.11421 20.25 9V15C20.25 17.8858 17.8858 20.25 15 20.25H9C6.11421 20.25 3.75 17.8858 3.75 15V9ZM9 2.25C5.28579 2.25 2.25 5.28579 2.25 9V15C2.25 18.7142 5.28579 21.75 9 21.75H15C18.7142 21.75 21.75 18.7142 21.75 15V9C21.75 5.28579 18.7142 2.25 15 2.25H9ZM11.6999 8.6499C10.0154 8.6499 8.6499 10.0154 8.6499 11.6999C8.6499 13.3844 10.0154 14.7499 11.6999 14.7499C13.3844 14.7499 14.7499 13.3844 14.7499 11.6999C14.7499 10.0154 13.3844 8.6499 11.6999 8.6499ZM7.1499 11.6999C7.1499 9.18699 9.18699 7.1499 11.6999 7.1499C14.2128 7.1499 16.2499 9.18699 16.2499 11.6999C16.2499 12.6856 15.9364 13.5981 15.4038 14.3431L16.5302 15.4695C16.8231 15.7624 16.8231 16.2373 16.5302 16.5302C16.2373 16.8231 15.7624 16.8231 15.4695 16.5302L14.3431 15.4038C13.5981 15.9364 12.6856 16.2499 11.6999 16.2499C9.18699 16.2499 7.1499 14.2128 7.1499 11.6999Z" fill="black"/>
</svg>

<svg xmlns="http://www.w3.org/2000/svg" fill="none" viewBox="0 0 24 24">
  <path fill="#000" fill-rule="evenodd" d="M3.75 9c0-2.886 2.364-5.25 5.25-5.25h6c2.886 0 5.25 2.364 5.25 5.25v6c0 2.886-2.364 5.25-5.25 5.25H9c-2.886 0-5.25-2.364-5.25-5.25V9ZM9 2.25C5.286 2.25 2.25 5.286 2.25 9v6c0 3.714 3.036 6.75 6.75 6.75h6c3.714 0 6.75-3.036 6.75-6.75V9c0-3.714-3.036-6.75-6.75-6.75H9Zm2.7 6.4a3.05 3.05 0 1 0 0 6.1 3.05 3.05 0 0 0 0-6.1ZM7.15 11.7a4.55 4.55 0 1 1 8.254 2.643l1.126 1.127a.75.75 0 0 1-1.06 1.06l-1.127-1.126A4.55 4.55 0 0 1 7.15 11.7Z" clip-rule="evenodd"/>
</svg>
